Papirus-GTK/24x24/apps/akonaditray.svg

<svg height="24" width="24" xmlns="http://www.w3.org/2000/svg" xmlns:xlink="http://www.w3.org/1999/xlink"><clipPath id="a"><circle cx="286" cy="26" r="10"/></clipPath><circle clip-path="url(#a)" cx="286" cy="26" opacity="0" r="10" stroke-width=".45455" transform="matrix(2 0 0 2 -548 -28)"/><circle clip-path="url(#a)" cx="286" cy="26" opacity="0" r="10" stroke-width=".90908998" transform="matrix(2 0 0 2 -548 -28)"/><path d="m20 11.5a8.5 8.5 0 0 1 -8.5 8.5 8.5 8.5 0 0 1 -8.5-8.5 8.5 8.5 0 0 1  8.5-8.5 8.5 8.5 0 0 1  8.5 8.5z" fill="#cddff0"/><path d="m11.5 3a8.5 8.5 0 0 0 -8.5 8.5 8.5 8.5 0 0 0  .01075.29 8.5 8.5 0 0 1  8.489-8.29 8.5 8.5 0 0 1  8.4895 8.21 8.5 8.5 0 0 0  .0105-.21 8.5 8.5 0 0 0 -8.5-8.5z" fill="#fff" opacity=".2"/><path d="m16.7515 19.2255c-4.5435 2.6235-10.354 1.0665-12.977-3.477-2.6235-4.544-1.0667-10.354 3.477-12.9775 5.354-.02459 8.7535 11.5445 9.5 16.4545z" fill="#85b4df"/><path d="m7.252 2.7715c-3.1592 1.824-4.86995 5.1885-4.7403 8.5965.0477-3.2335 1.73585-6.362 4.7403-8.0965 5.199-.0239 8.5475 10.867 9.421 15.994.02596-.01467.05323-.0251.0791-.04004-.7467-4.91-4.14605-16.4785-9.5-16.454z" fill="#fff" opacity=".2"/><path d="m21 11.5c0 5.2465-4.2535 9.5-9.5 9.5-5.2465 0-9.5-4.2535-9.5-9.5 2.65565-4.64895 14.3745-1.80835 19 0z" fill="#608ab5"/><path d="m7.959 8.9805c-2.693.0865-4.9631.776-5.959 2.5195 0 .156875.01592.30983.023437.464845 2.69215-4.5896 14.3234995-1.77755 18.9520005.02637.0085-.1635.0245-.325.0245-.491-2.891-1.13-8.553-2.6635-13.0410005-2.5195z" fill="#fff" opacity=".2"/><path d="m2.02345 11.465c-.0072.012-.0164.0225-.02345.035 0 5.2465 4.2535 9.5 9.5 9.5 5.2465 0 9.5-4.2535 9.5-9.5-.0075-.003-.017-.006-.0245-.009-.257 5.017-4.3945 9.009-9.4755 9.009-5.09 0-9.2325-4.006-9.4765-9.035z" opacity=".3"/></svg>

<?xml version="1.0" encoding="UTF-8" standalone="no"?>
<!-- Created with Inkscape (http://www.inkscape.org/) -->

<svg
   xmlns:dc="http://purl.org/dc/elements/1.1/"
   xmlns:cc="http://creativecommons.org/ns#"
   xmlns:rdf="http://www.w3.org/1999/02/22-rdf-syntax-ns#"
   xmlns:svg="http://www.w3.org/2000/svg"
   xmlns="http://www.w3.org/2000/svg"
   xmlns:sodipodi="http://sodipodi.sourceforge.net/DTD/sodipodi-0.dtd"
   xmlns:inkscape="http://www.inkscape.org/namespaces/inkscape"
   id="svg2817"
   height="24"
   width="24"
   version="1.0"
   inkscape:version="0.91 r13725"
   sodipodi:docname="akonaditray.svg">
  <sodipodi:namedview
     pagecolor="#ffffff"
     bordercolor="#666666"
     borderopacity="1"
     objecttolerance="10"
     gridtolerance="10"
     guidetolerance="10"
     inkscape:pageopacity="0"
     inkscape:pageshadow="2"
     inkscape:window-width="1600"
     inkscape:window-height="845"
     id="namedview17"
     showgrid="false"
     inkscape:zoom="17.31"
     inkscape:cx="-4.5254237"
     inkscape:cy="12"
     inkscape:window-x="0"
     inkscape:window-y="32"
     inkscape:window-maximized="1"
     inkscape:current-layer="svg2817" />
  <metadata
     id="metadata57">
    <rdf:RDF>
      <cc:Work
         rdf:about="">
        <dc:format>image/svg+xml</dc:format>
        <dc:type
           rdf:resource="http://purl.org/dc/dcmitype/StillImage" />
        <dc:title />
      </cc:Work>
    </rdf:RDF>
  </metadata>
  <defs
     id="defs2819">
    <clipPath
       id="clipPath4186"
       clipPathUnits="userSpaceOnUse">
      <circle
         id="path4188"
         style="color:#000000"
         cx="286"
         cy="26"
         r="10"
         fill="url(#linearGradient4190)" />
    </clipPath>
  </defs>
  <circle
     r="10"
     cy="26"
     transform="matrix(2,0,0,2,-548,-28)"
     cx="286"
     clip-path="url(#clipPath4186)"
     style="color:#000000;opacity:0;stroke-width:0.45455"
     id="path4240" />
  <circle
     r="10"
     cy="26"
     transform="matrix(2,0,0,2,-548,-28)"
     cx="286"
     clip-path="url(#clipPath4186)"
     style="color:#000000;opacity:0;stroke-width:0.90908998"
     id="path4242" />
  <g
     id="g4170">
    <path
       id="path4230"
       d="M 20,11.5 A 8.5,8.5 0 0 1 11.5,20 8.5,8.5 0 0 1 3,11.5 8.5,8.5 0 0 1 11.5,3 8.5,8.5 0 0 1 20,11.5 Z"
       style="color:#000000;fill:#cddff0"
       inkscape:connector-curvature="0" />
    <path
       id="path4422"
       d="m 11.5,3 a 8.5,8.5 0 0 0 -8.5,8.5 8.5,8.5 0 0 0 0.01075,0.29 8.5,8.5 0 0 1 8.489,-8.29 8.5,8.5 0 0 1 8.4895,8.21 8.5,8.5 0 0 0 0.0105,-0.21 8.5,8.5 0 0 0 -8.5,-8.5 z"
       style="color:#000000;opacity:0.2;fill:#ffffff"
       inkscape:connector-curvature="0" />
    <path
       id="path4397"
       d="M 16.7515,19.2255 C 12.208,21.849 6.3975,20.292 3.7745,15.7485 1.151,11.2045 2.7078,5.3945 7.2515,2.771 c 5.354,-0.02459 8.7535,11.5445 9.5,16.4545 z"
       style="color:#000000;fill:#85b4df"
       inkscape:connector-curvature="0" />
    <path
       id="path4416"
       d="M 7.252,2.7715 C 4.0928,4.5955 2.38205,7.96 2.5117,11.368 2.5594,8.1345 4.24755,5.006 7.252,3.2715 c 5.199,-0.0239 8.5475,10.867 9.421,15.994 0.02596,-0.01467 0.05323,-0.0251 0.0791,-0.04004 -0.7467,-4.91 -4.14605,-16.4785 -9.5,-16.454 z"
       style="color:#000000;opacity:0.2;fill:#ffffff"
       inkscape:connector-curvature="0" />
    <path
       id="circle4394"
       d="M 21,11.5 C 21,16.7465 16.7465,21 11.5,21 6.2535,21 2,16.7465 2,11.5 4.65565,6.85105 16.3745,9.69165 21,11.5 Z"
       style="color:#000000;fill:#608ab5"
       inkscape:connector-curvature="0" />
    <path
       id="path4413"
       d="M 7.959,8.9805 C 5.266,9.067 2.9959,9.7565 2,11.5 c 0,0.156875 0.01592,0.30983 0.023437,0.464845 2.69215,-4.5896 14.3234995,-1.77755 18.9520005,0.02637 0.0085,-0.1635 0.0245,-0.325 0.0245,-0.491 -2.891,-1.13 -8.553,-2.6635 -13.0410005,-2.5195 z"
       style="color:#000000;opacity:0.2;fill:#ffffff"
       inkscape:connector-curvature="0" />
    <path
       id="path4273"
       style="color:#000000;opacity:0.3"
       d="M 2.02345,11.465 C 2.01625,11.477 2.00705,11.4875 2,11.5 2,16.7465 6.2535,21 11.5,21 16.7465,21 21,16.7465 21,11.5 20.9925,11.497 20.983,11.494 20.9755,11.491 20.7185,16.508 16.581,20.5 11.5,20.5 6.41,20.5 2.2675,16.494 2.0235,11.465 Z"
       inkscape:connector-curvature="0" />
  </g>
</svg>
